X:1
T:Title
%%score ( 1 2 3 ) { ( 4 6 ) | 5 }
L:1/8
Q:1/4=105
M:4/4
K:Eb
V:1 treble nm="Grand Piano, Staff"
V:2 treble 
V:3 treble 
V:4 bass nm="Choir Pad, Das Walt' Gott Vater, LM"
V:6 bass 
V:5 bass 
V:1
 [B,E]2 [EG]2 [EB]2 [DB]2 | [DG]2 E-[B,E] [B,F]2 [B,G]2 | z4 z2 .G2 | [Bd]2 ed z =A [FB]2 | %4
w: By~Daniel~Vetter,~1713,~adapted~by~Johann~S.~Bach * * *||||
 z2 G2 z4 | z2 .F2 G2 F2 | [FA]2 GA [EB]2 [EA]2 | z4 F2 z2 | z8 |] %9
w: |||||
V:2
 x8 | z2 .C2 z4 | [B,E]2 [EG]2 [FB]2 c-[=Ac] | z2 B2 c2 z2 | [FB]2 FE/D/ [EB]2 [Ec]2 | %5
 [EB]2 A-[B,A] B,EED | z2 E2 z4 | GF .[CE]2 z D E2- | E6 z2 |] %9
V:3
 x8 | x8 | x8 | x8 | x8 | x8 | x8 | D2 z E- E/ z/ z z2 | x8 |] %9
V:4
 G,2 B,2 B,2 F,2 | G,2 G,2 F,2 E,2 | z4 B,2[K:treble] z2 | D2 [G,G]2 C2 D2 | B,2 B,2 B,2 B,A, | %5
 A,G, F,2 G,>A, B,2 | B,2 B,2 B,2 C2 | B,A, G,2 B,>A, G,2- | G,6 z2 |] %9
V:5
 E,2 E,2 G,,A,, B,,2 | =B,,2 C,2 D,2 z2 | E,2 E,2 z2 C,2 | F,E, E,2 F,2 B,,2 | D,2 E,2 G,E, C,2 | %5
 E,2 E,D, E,2 B,,2 | D,2 E,2 G,,2 A,,2 | B,,2 C,2 B,,2 E,2- | E,6 z2 |] %9
V:6
 x8 | x8 | G,2 G,2 z D,[K:treble] E2 | x8 | x8 | x8 | x8 | x8 | x8 |] %9

